images/email-teal.svg

<svg xmlns="http://www.w3.org/2000/svg" viewBox="0 0 89.3 59.9" enable-background="new 0 0 89.3 59.9"><path fill="#13CFB0" stroke="#13CFB0" stroke-width="2" stroke-miterlimit="10" d="M1 1v57.9h87.3v-57.9h-87.3zm43.7 35.7l-35.9-31.4h71.6l-35.7 31.4zm-14.3-6.8l-25.1 22.1v-44.1l25.1 22zm3.2 2.9l11 9.7 11-9.7 24.8 21.8h-71.6l24.8-21.8zm25.3-2.9l25.1-22v44.1l-25.1-22.1zm0 0"/></svg>

<?xml version="1.0" encoding="utf-8"?>
<!-- Generator: Adobe Illustrator 21.1.0, SVG Export Plug-In . SVG Version: 6.00 Build 0)  -->
<svg version="1.1" id="Layer_1" xmlns="http://www.w3.org/2000/svg" xmlns:xlink="http://www.w3.org/1999/xlink" x="0px" y="0px"
	 viewBox="0 0 89.3 59.9" style="enable-background:new 0 0 89.3 59.9;" xml:space="preserve">
<style type="text/css">
	.st0{fill:#F44A52;stroke:#F44A52;stroke-width:2;stroke-miterlimit:10;}
</style>
<path class="st0" d="M1,1v57.9h87.3V1H1z M44.7,36.7L8.8,5.3h71.6C80.4,5.3,44.7,36.7,44.7,36.7z M30.4,29.9L5.3,52V7.9L30.4,29.9z
	 M33.6,32.8l11,9.7l11-9.7l24.8,21.8H8.8L33.6,32.8z M58.9,29.9L84,7.9V52C84,52,58.9,29.9,58.9,29.9z"/>
</svg>
